assets/icons/librescoot-overlay-idle-light.svg

<svg xmlns="http://www.w3.org/2000/svg" xml:space="preserve" width="144" height="144" style="fill-rule:evenodd;clip-rule:evenodd;stroke-linejoin:round;stroke-miterlimit:2" viewBox="0 0 144 144"><path d="m79.699 53.875-2.849 2.808.02.021.02.019zm0-8.642-2.809-2.848-.02.02zm8.642 0-2.789 2.868zm.971 7.389-3.402-2.103-.011.017zm-2.224 2.225 2.039 3.441.023-.014.024-.014zm-3.043 4.818v-8c-.628 0-1.07-.177-1.538-.638l-5.617 5.696c1.953 1.926 4.408 2.942 7.155 2.942m-7.195-2.982 5.697-5.616c-.461-.468-.638-.91-.638-1.539h-8c0 2.747 1.016 5.203 2.941 7.155m-2.941-7.155h8c0-.597.166-1.015.618-1.467l-2.828-2.828-2.829-2.828c-1.935 1.934-2.961 4.38-2.961 7.123m5.79-4.295 2.808 2.848c.468-.461.91-.638 1.538-.638v-8c-2.747 0-5.202 1.016-7.155 2.942zm4.346-5.79v8c.543 0 .989.154 1.507.658l2.789-2.868 2.788-2.868c-1.936-1.882-4.354-2.922-7.084-2.922m4.296 5.79-2.789 2.868c.474.461.63.867.63 1.427h8c0-2.78-1.073-5.238-3.053-7.163zm5.841 4.295h-8c0 .399-.092.699-.272.991l3.402 2.103 3.403 2.103a9.77 9.77 0 0 0 1.467-5.197m-1.457 5.18-6.826-4.172a2.6 2.6 0 0 1-.897.898l4.172 6.826a10.6 10.6 0 0 0 3.551-3.552m-3.598 3.58-4.078-6.883a1.86 1.86 0 0 1-1.004.26v8a9.86 9.86 0 0 0 5.082-1.377m12.017-4.413-2.849 2.808.02.021.021.019zm0-8.642-2.808-2.848-.021.02zm8.642 0-2.788 2.868zm.971 7.389-3.402-2.103-.005.009-.006.008zm-2.224 2.225 2.039 3.441.024-.014.023-.014zm-3.043 4.818v-8c-.628 0-1.07-.177-1.538-.638l-5.616 5.696c1.952 1.926 4.408 2.942 7.154 2.942m-4.346-5.79 2.848-2.808c-.461-.468-.638-.91-.638-1.539h-8c0 2.747 1.016 5.203 2.941 7.155zm-5.79-4.347h8c0-.597.167-1.015.618-1.467l-2.828-2.828-2.829-2.828c-1.934 1.934-2.961 4.38-2.961 7.123m2.982-7.143 5.616 5.696c.468-.461.91-.638 1.538-.638v-8c-2.746 0-5.202 1.016-7.154 2.942m7.154-2.942v8c.543 0 .989.154 1.508.658l5.576-5.736c-1.936-1.882-4.354-2.922-7.084-2.922m7.084 2.922-5.576 5.736c.474.461.629.867.629 1.427h8c0-2.78-1.072-5.238-3.053-7.163m3.053 7.163h-8c0 .399-.092.699-.272.991l3.402 2.103 3.403 2.103a9.77 9.77 0 0 0 1.467-5.197m-4.87 3.094-3.413-2.086a2.6 2.6 0 0 1-.897.898l4.172 6.826a10.6 10.6 0 0 0 3.552-3.552zm-.185 5.666-4.078-6.883a1.86 1.86 0 0 1-1.004.26v8a9.86 9.86 0 0 0 5.082-1.377m12.017-4.413-2.848 2.808.02.021.02.019zm0-8.642-2.808-2.848-.02.02zm8.642 0-2.788 2.868zm.972 7.389-3.403-2.103-.01.017zm-2.225 2.225 2.04 3.441.046-.028zm-3.042 4.818v-8c-.628 0-1.071-.177-1.539-.638l-5.616 5.696c1.953 1.926 4.408 2.942 7.155 2.942m-4.347-5.79 2.849-2.808c-.462-.468-.639-.91-.639-1.539h-8c0 2.747 1.017 5.203 2.942 7.155zm-5.79-4.347h8c0-.597.167-1.015.619-1.467l-2.829-2.828-2.828-2.828c-1.935 1.934-2.962 4.38-2.962 7.123m2.982-7.143 5.616 5.696c.468-.461.911-.638 1.539-.638v-8c-2.747 0-5.202 1.016-7.155 2.942m7.155-2.942v8c.543 0 .988.154 1.507.658l5.576-5.736c-1.935-1.882-4.354-2.922-7.083-2.922m7.083 2.922-5.576 5.736c.474.461.629.867.629 1.427h8c0-2.78-1.072-5.238-3.053-7.163m3.053 7.163h-8c0 .399-.091.699-.272.991l3.403 2.103 3.402 2.103a9.77 9.77 0 0 0 1.467-5.197m-1.456 5.18-6.826-4.172a2.6 2.6 0 0 1-.897.898l2.085 3.413 2.086 3.413a10.6 10.6 0 0 0 3.552-3.552m-5.638.139-2.039-3.442c-.28.167-.586.26-1.003.26v8a9.87 9.87 0 0 0 5.082-1.377z" style="fill:#fff;fill-rule:nonzero"/><path d="M84.045 55.665q-2.53 0-4.346-1.79-1.79-1.815-1.79-4.347 0-2.505 1.79-4.295 1.815-1.79 4.346-1.79 2.455 0 4.296 1.79 1.84 1.79 1.841 4.295 0 1.688-.87 3.094a6.6 6.6 0 0 1-2.224 2.225 5.87 5.87 0 0 1-3.043.818m21.445 0q-2.53 0-4.346-1.79-1.79-1.815-1.79-4.347 0-2.505 1.79-4.295 1.815-1.79 4.346-1.79 2.456 0 4.296 1.79t1.841 4.295q0 1.688-.87 3.094a6.6 6.6 0 0 1-2.224 2.225 5.86 5.86 0 0 1-3.043.818m21.446 0q-2.532 0-4.347-1.79-1.79-1.815-1.79-4.347 0-2.505 1.79-4.295 1.815-1.79 4.347-1.79 2.454 0 4.295 1.79t1.841 4.295q0 1.688-.869 3.094a6.6 6.6 0 0 1-2.225 2.225 5.86 5.86 0 0 1-3.042.818" style="fill-rule:nonzero"/></svg>

<?xml version="1.0" encoding="UTF-8" standalone="no"?>
<!DOCTYPE svg PUBLIC "-//W3C//DTD SVG 1.1//EN" "http://www.w3.org/Graphics/SVG/1.1/DTD/svg11.dtd">
<svg width="100%" height="100%" viewBox="0 0 600 600" version="1.1" xmlns="http://www.w3.org/2000/svg" xmlns:xlink="http://www.w3.org/1999/xlink" xml:space="preserve" xmlns:serif="http://www.serif.com/" style="fill-rule:evenodd;clip-rule:evenodd;stroke-linejoin:round;stroke-miterlimit:2;">
    <g transform="matrix(4.16667,0,0,4.16667,0,0)">
        <path d="M79.699,53.875L76.85,56.683L76.87,56.704L76.89,56.723L79.699,53.875ZM79.699,45.233L76.89,42.385L76.87,42.405L79.699,45.233ZM88.341,45.233L85.552,48.101L88.341,45.233ZM89.312,52.622L85.91,50.519L85.899,50.536L89.312,52.622ZM87.088,54.847L89.127,58.288L89.15,58.274L89.174,58.26L87.088,54.847ZM84.045,59.665L84.045,51.665C83.417,51.665 82.975,51.488 82.507,51.027L76.89,56.723C78.843,58.649 81.298,59.665 84.045,59.665ZM76.85,56.683L82.547,51.067C82.086,50.599 81.909,50.157 81.909,49.528L73.909,49.528C73.909,52.275 74.925,54.731 76.85,56.683ZM73.909,49.528L81.909,49.528C81.909,48.931 82.075,48.513 82.527,48.061L79.699,45.233L76.87,42.405C74.935,44.339 73.909,46.785 73.909,49.528ZM79.699,45.233L82.507,48.081C82.975,47.62 83.417,47.443 84.045,47.443L84.045,39.443C81.298,39.443 78.843,40.459 76.89,42.385L79.699,45.233ZM84.045,39.443L84.045,47.443C84.588,47.443 85.034,47.597 85.552,48.101L88.341,45.233L91.129,42.365C89.193,40.483 86.775,39.443 84.045,39.443ZM88.341,45.233L85.552,48.101C86.026,48.562 86.182,48.968 86.182,49.528L94.182,49.528C94.182,46.748 93.109,44.29 91.129,42.365L88.341,45.233ZM94.182,49.528L86.182,49.528C86.182,49.927 86.09,50.227 85.91,50.519L89.312,52.622L92.715,54.725C93.693,53.142 94.182,51.38 94.182,49.528ZM89.312,52.622L85.899,50.536C85.667,50.915 85.381,51.202 85.002,51.434L89.174,58.26C90.635,57.366 91.832,56.17 92.725,54.708L89.312,52.622ZM89.127,58.288L85.049,51.405C84.768,51.572 84.462,51.665 84.045,51.665L84.045,59.665C85.844,59.665 87.567,59.212 89.127,58.288ZM101.144,53.875L98.295,56.683L98.315,56.704L98.336,56.723L101.144,53.875ZM101.144,45.233L98.336,42.385L98.315,42.405L101.144,45.233ZM109.786,45.233L106.998,48.101L109.786,45.233ZM110.757,52.622L107.355,50.519L107.35,50.528L107.344,50.536L110.757,52.622ZM108.533,54.847L110.572,58.288L110.596,58.274L110.619,58.26L108.533,54.847ZM105.49,59.665L105.49,51.665C104.862,51.665 104.42,51.488 103.952,51.027L101.144,53.875L98.336,56.723C100.288,58.649 102.744,59.665 105.49,59.665ZM101.144,53.875L103.992,51.067C103.531,50.599 103.354,50.157 103.354,49.528L95.354,49.528C95.354,52.275 96.37,54.731 98.295,56.683L101.144,53.875ZM95.354,49.528L103.354,49.528C103.354,48.931 103.521,48.513 103.972,48.061L101.144,45.233L98.315,42.405C96.381,44.339 95.354,46.785 95.354,49.528ZM101.144,45.233L103.952,48.081C104.42,47.62 104.862,47.443 105.49,47.443L105.49,39.443C102.744,39.443 100.288,40.459 98.336,42.385L101.144,45.233ZM105.49,39.443L105.49,47.443C106.033,47.443 106.479,47.597 106.998,48.101L109.786,45.233L112.574,42.365C110.638,40.483 108.22,39.443 105.49,39.443ZM109.786,45.233L106.998,48.101C107.472,48.562 107.627,48.968 107.627,49.528L115.627,49.528C115.627,46.748 114.555,44.29 112.574,42.365L109.786,45.233ZM115.627,49.528L107.627,49.528C107.627,49.927 107.535,50.227 107.355,50.519L110.757,52.622L114.16,54.725C115.139,53.142 115.627,51.38 115.627,49.528ZM110.757,52.622L107.344,50.536C107.113,50.915 106.826,51.202 106.447,51.434L110.619,58.26C112.081,57.366 113.277,56.17 114.171,54.708L110.757,52.622ZM110.572,58.288L106.494,51.405C106.213,51.572 105.907,51.665 105.49,51.665L105.49,59.665C107.289,59.665 109.012,59.212 110.572,58.288ZM122.589,53.875L119.741,56.683L119.761,56.704L119.781,56.723L122.589,53.875ZM122.589,45.233L119.781,42.385L119.761,42.405L122.589,45.233ZM131.231,45.233L128.443,48.101L131.231,45.233ZM132.203,52.622L128.8,50.519L128.79,50.536L132.203,52.622ZM129.978,54.847L132.018,58.288L132.041,58.274L132.064,58.26L129.978,54.847ZM126.936,59.665L126.936,51.665C126.308,51.665 125.865,51.488 125.397,51.027L119.781,56.723C121.734,58.649 124.189,59.665 126.936,59.665ZM122.589,53.875L125.438,51.067C124.976,50.599 124.799,50.157 124.799,49.528L116.799,49.528C116.799,52.275 117.816,54.731 119.741,56.683L122.589,53.875ZM116.799,49.528L124.799,49.528C124.799,48.931 124.966,48.513 125.418,48.061L122.589,45.233L119.761,42.405C117.826,44.339 116.799,46.785 116.799,49.528ZM122.589,45.233L125.397,48.081C125.865,47.62 126.308,47.443 126.936,47.443L126.936,39.443C124.189,39.443 121.734,40.459 119.781,42.385L122.589,45.233ZM126.936,39.443L126.936,47.443C127.479,47.443 127.924,47.597 128.443,48.101L131.231,45.233L134.019,42.365C132.084,40.483 129.665,39.443 126.936,39.443ZM131.231,45.233L128.443,48.101C128.917,48.562 129.072,48.968 129.072,49.528L137.072,49.528C137.072,46.748 136,44.29 134.019,42.365L131.231,45.233ZM137.072,49.528L129.072,49.528C129.072,49.927 128.981,50.227 128.8,50.519L132.203,52.622L135.605,54.725C136.584,53.142 137.072,51.38 137.072,49.528ZM135.616,54.708L128.79,50.536C128.558,50.915 128.272,51.202 127.893,51.434L129.978,54.847L132.064,58.26C133.526,57.366 134.723,56.17 135.616,54.708ZM129.978,54.847L127.939,51.405C127.659,51.572 127.353,51.665 126.936,51.665L126.936,59.665C128.735,59.665 130.457,59.212 132.018,58.288L129.978,54.847Z" style="fill:white;fill-rule:nonzero;"/>
        <path d="M84.045,55.665C82.358,55.665 80.909,55.068 79.699,53.875C78.505,52.665 77.909,51.216 77.909,49.528C77.909,47.858 78.505,46.426 79.699,45.233C80.909,44.04 82.358,43.443 84.045,43.443C85.682,43.443 87.113,44.04 88.341,45.233C89.568,46.426 90.182,47.858 90.182,49.528C90.182,50.653 89.892,51.685 89.312,52.622C88.75,53.543 88.008,54.284 87.088,54.847C86.167,55.392 85.153,55.665 84.045,55.665ZM105.49,55.665C103.803,55.665 102.354,55.068 101.144,53.875C99.951,52.665 99.354,51.216 99.354,49.528C99.354,47.858 99.951,46.426 101.144,45.233C102.354,44.04 103.803,43.443 105.49,43.443C107.127,43.443 108.559,44.04 109.786,45.233C111.013,46.426 111.627,47.858 111.627,49.528C111.627,50.653 111.337,51.685 110.757,52.622C110.195,53.543 109.453,54.284 108.533,54.847C107.613,55.392 106.598,55.665 105.49,55.665ZM126.936,55.665C125.248,55.665 123.799,55.068 122.589,53.875C121.396,52.665 120.799,51.216 120.799,49.528C120.799,47.858 121.396,46.426 122.589,45.233C123.799,44.04 125.248,43.443 126.936,43.443C128.572,43.443 130.004,44.04 131.231,45.233C132.458,46.426 133.072,47.858 133.072,49.528C133.072,50.653 132.782,51.685 132.203,52.622C131.64,53.543 130.899,54.284 129.978,54.847C129.058,55.392 128.044,55.665 126.936,55.665Z" style="fill-rule:nonzero;"/>
    </g>
</svg>
